X:1
T: The Hare Among the Heather
C:
R:Reel
Q: 232
K:Em
M:4/4
L:1/8
|:((3BBB) eB fB eB|B^c dB AD FA|((3BBB) eB fB eB|B^c dB AD FA:|
|:B2 EB GB EB|B2 EB GB EB|B2 EB GB EB|B^c dB AD FA:|
|:E2 B2 BA FD|E2 B2 BA FD|E2 B2 BA FD|B^c dB AD FA:|
